!!!ONB: MCCC : IJH0431_02 : Extracted Monophonic Melody
!!!COM: Haydn, Joseph
!!!OPR: String Quartet in D major 'The Lark'
!!!OMV: 2
!!!SCT: Hob.III:63 ; Op.64 No.5
!!!ODT: 1790///
**kern
*thru
*k[f#c#g#]
*A:
*clefF
*M3/4
8.cc#
32dd
32cc#
4b
4a
=1
4a
8g#
8a
8b
8cc#
=2
8.dd
32ee
32dd
4cc#
4b
=3
4ee
4r
32a
32b
32cc#
32dd
32ee
32ff#
32gg#
32aa
=4
8.aa
16ff#
4..ff#
16ff#
=5
8.ff#
16b
6..b[
48b]
16cc#
16dd
16dd#
=6
4.ee
4dd
8cc#[
=7
8cc#]
8a#
4.b
8b#
=8
8.cc#
32dd
32cc#
4b
4a
=9
4a
8g#
8a
8b
8cc#
=10
8.dd
32ee
32dd
4cc#
4b
=11
4ee
4r
32a
32b
32cc#
32dd
48ee
48ff#
48gg#
48aa
48bb
48ccc#
=12
8.ccc#
16ff#
6..ff#[
48ff#]
16gg#
16aa
16aa#
=13
8.bb
16gg#
4.ee
8gg#[
=14
8gg#]
4ff#
4ee
8dd#
=15
4dd#
8ee
4.r
=16
8.ee
16a
4.a
8ee
=17
8.ee
16g#
4.g#
8ee
=18
4.ee
8ff
8gg
8ee
=19
4ee
4.ff
8ee
=20
4ee
4.dd#
8dd#
=21
4dd#
4.ee
8dd
=22
8.cc#
32dd
32cc#
4b
4a
=23
4a
8g#
8a
8b
8cc#
=24
8.dd
32ee
32dd
4cc#
4b
=25
4ee
4r
32a
32b
32cc#
32dd
32ee
32ff#
32gg#
32aa
=26
8.aa
16ff#
4.ff#
8ddd
=27
4ddd
4G#
4r
=28
4bb
4ee#
4ff#
=29
4gg#
4aa
4r
=30
4ff#
4ee
4dd#
=31
4.ee
16ff#
16ee
16dd
16cc#
16b
16a
=32
4a
8g#
8b
8dd
8g#
=33
4b
8a
4.r
=34
2r
4r
=35
8.ff
32gg
32ff
4ee
4dd
=36
2cc
4aa
=37
4cc
4b
4r
=38
8.e
32f
32e
4d
4c
=39
8c
8a
4.a
8g
=40
8g
8f#
4.f
8e
=41
4e
8d
8G
8B
8d
=42
8.f
48e
48d
48c
8.B
16c
16d
16e
16f
16f#
=43
8.g
48f
48e
48d
2c#
=44
24d
24a
24g#
24a
24f
24d
4c
8.d
16c
=45
4.c
8e
8e
8e
=46
8.e
32f
32e
8d
8d
8c
8c
=47
4c
8B
8e
8e
8e
=48
4.a
8b
8cc
8d#
=49
4d#
8e
16f#
16g#
16a
16a#
16b
16b#
=50
8.cc#
32dd
32cc#
4b
4a
=51
4a
16g#
16ee
16a
16ee
16b
16ee
16cc#
16ee
=52
8dd
32dd
32cc#
32dd
32ee
4ff#
16ee
16dd
16cc#
16b
=53
4ee
4r
32a
32b
32cc#
32dd
32ee
32ff#
32gg#
32aa
=54
8.aa
16ff#
8.ff#
32ee#
32ff#
32ee#
32ff#
32ee#
32ff#
32ee#
32ff#
32gg#
32ff#
=55
8.ff#
48ee
48dd
48cc#
8.b
16b
24a#
24b
24b#
24cc#
24dd
24dd#
=56
8ee
8.ee
16dd#
16r
16dd
16r
16cc#
16r
32cc#
32aa
=57
16cc#
16dd
16dd#
16ee
4.b
8b#
=58
16.cc#
32dd
16.ee
64dd
64cc#
16.b
32cc#
16.dd
64cc#
64b
8a
8a
=59
4a
16g#
16g#
16b
16a
16cc#
16b
16dd
16cc#
=60
8ee
8dd
4ff#
16ee
16dd
16cc#
16b
=61
4ee
4r
24A
24c#
24e
24a
24cc#
24ee
=62
24aa
24ccc#
24bb
24aa
24gg#
24ff#
24ee
24dd#
24cc#
24b
24a#
24b
24cc#
24dd#
24ee
24ff#
24gg#
24aa
=63
8aa#
6bb
24bb
24gg#
24ee
24bb
24gg#
24ee
24eee
24ddd#
24ccc#
24bb
24aa
=64
24gg#
24ff#
24gg#
24aa
24gg#
24ff#
24r
24ee
24ff#
24gg#
24ff#
24ee
24r
24dd#
24ff#
24aa
24bb
24dd#
=65
4ff#
8ee
4.r
=66
8.ee
16a
6..a
24b
24cc
24cc#
24dd
24dd#
=67
8.ee
16g#
6..g#
24e
24ee
24e
24ee
24e
=68
6..ee
24e
24ee
24ff
24f
24ff
24gg
24g
24gg
24ee
24e
24ee
=69
16ee
16ee
16gg
16ff
4ff
24f
24a
24cc
24ff
24aa
24ff
=70
4ee
8dd#
8dd#
8dd#
8dd#
=71
16dd#
16dd#
16ff#
16ee
4ee
8dd#
8dd
=72
8.cc#
32dd
32cc#
4b
4a
=73
4a
24g#
24ee
24ee
24a
24ff#
24ee
24b
24ff#
24ee
24dd
24cc#
24aa
=74
24aa
24cc#
24dd
24ee
24cc#
24dd
4ff#
16ee
16dd
16cc#
16b
=75
4ee
4r
24c#
24e
24a
24cc#
24ee
24aa
=76
4aa
8ff#
8r
24d
24f#
24a
32dd
32ff#
32aa
32ddd
=77
4fff#
4G#
4r
=78
4bb
4ee#
4ff#
=79
8.gg#
16gg#
4aa
4r
=80
8.ff#
48aa
48gg#
48ff#
8.ee
64aa
64gg#
64ff#
64ee
24dd#
24ff#
24gg#
24aa
24ff#
24dd#
=81
24ee
24ccc#
24aa
24ee
24eee
24ccc#
24aa
24eee
24ddd
24ccc#
24bb
24aa
24gg#
24ff#
24ee
24dd
24cc#
24b
=82
4a
24g#
24b
24a
24cc#
24b
24dd
24cc#
24ee
24cc#
24dd
24b
24g#
=83
2b
8a
8r
==
*-
